src/public/img/landing/new/docs-code/wordpress.svg

<svg width="107" height="22" viewBox="0 0 107 22" fill="none" xmlns="http://www.w3.org/2000/svg">
<path d="M40.2349 5.83333L37.9045 14.7667L35.574 5.83333H33.2268L33.7698 7.75L31.7233 15.0667L29.4847 5.83333H27.2294L30.4035 17.5H32.876L34.7805 11.2583L36.5596 17.5H39.0238L42.3649 5.83333H40.2349ZM63.9489 9.21667C63.4392 9.09901 62.9184 9.03477 62.3953 9.025C59.5553 9.025 58.0016 10.9167 58.0016 13.6917C58.0016 16.45 59.5553 17.7083 61.3846 17.7083C62.3571 17.6767 63.2939 17.335 64.0575 16.7333V17.5H66.0038V5.83333H63.9489V9.21667ZM63.9489 15.1167C63.2807 15.725 62.6542 16.0583 61.9944 16.0583C60.8583 16.0583 60.1316 15.3083 60.1316 13.55C60.1316 11.65 61.0338 10.6583 62.6041 10.6583C63.0635 10.6583 63.5229 10.75 63.9406 10.9167V15.1167H63.9489ZM54.1259 10.5833H54.0507V9.21667H52.1295V17.5H54.1927V12.5667C54.8359 11.35 55.6211 10.95 56.9325 10.95H57.1413V9.16667C56.9554 9.14619 56.7686 9.13507 56.5816 9.13333C55.4623 9.13333 54.6939 9.56667 54.1259 10.5917V10.5833ZM46.2908 9.00833C43.4508 9.00833 42.1143 10.8417 42.1143 13.3667C42.1143 15.8833 43.4508 17.7 46.2908 17.7C49.1308 17.7 50.484 15.8833 50.484 13.3667C50.484 10.8417 49.1141 9.00833 46.2825 9.00833H46.2908ZM46.2908 16.0417C44.9543 16.0417 44.236 15.175 44.236 13.3667C44.236 11.55 44.9544 10.6833 46.2992 10.6833C47.6356 10.6833 48.3373 11.55 48.3373 13.3667C48.3373 15.175 47.6273 16.0417 46.2825 16.0417H46.2908ZM79.9615 10.575H79.8947V9.21667H77.9652V17.5H80.02V12.5667C80.6632 11.35 81.4484 10.95 82.7598 10.95H82.9686V9.16667C82.7827 9.14619 82.5959 9.13507 82.4089 9.13333C81.298 9.13333 80.5295 9.56667 79.9532 10.5917H79.9615V10.575ZM72.3771 5.83333H68.5514V17.5H70.7566V13.4417H72.3687C74.8662 13.4417 76.6788 12.1 76.6788 9.59167C76.6788 7.09167 74.8662 5.83333 72.3687 5.83333H72.3771ZM72.3938 11.7333H70.7566V7.55833H72.3854C73.7219 7.55833 74.3734 8.29167 74.3734 9.59167C74.3734 10.9 73.7636 11.7333 72.3854 11.7333H72.3938ZM102.481 11.5417C102.481 10.9167 103.166 10.675 103.901 10.675C104.678 10.6833 105.455 10.8083 106.198 11.0333V9.33333C105.397 9.10751 104.567 9.00081 103.734 9.01667C101.746 9.01667 100.351 9.95833 100.351 11.4917C100.351 14.4667 104.461 13.7 104.461 15.15C104.461 15.8583 103.818 16.05 102.874 16.05C102.205 16.05 101.145 15.8 100.376 15.525V17.2167C101.147 17.5242 101.968 17.6907 102.798 17.7083C104.736 17.7083 106.582 17.1333 106.582 15.0667C106.607 12.1917 102.489 12.9333 102.489 11.5417H102.481ZM87.8634 9.01667C85.2072 9.01667 83.8289 11.075 83.8289 13.3167C83.8289 16.4 85.4494 17.7083 88.0889 17.7083C89.1239 17.7105 90.1528 17.5502 91.1378 17.2333V15.525C90.2774 15.8417 89.4922 16.0333 88.6569 16.0333C87.12 16.0333 86.0926 15.6167 86.0425 13.8083H91.3549C91.4051 13.4 91.4301 12.9917 91.4218 12.5917C91.4218 10.8417 90.4946 9.01667 87.8551 9.01667H87.8634ZM86.0592 12.45C86.1845 11.3 86.8109 10.5667 87.8383 10.5667C88.9409 10.5667 89.2751 11.4417 89.2751 12.45H86.0592ZM94.9968 11.5417C94.9968 10.9167 95.6734 10.675 96.4085 10.675C97.1853 10.6833 97.9621 10.8083 98.7055 11.0333V9.33333C97.9069 9.10833 97.0795 9.00163 96.2498 9.01667C94.2618 9.01667 92.8585 9.95833 92.8585 11.4917C92.8585 14.4667 96.9765 13.7 96.9765 15.15C96.9765 15.8583 96.3249 16.05 95.3894 16.05C94.7212 16.05 93.6603 15.8 92.8835 15.525V17.2167C93.6548 17.5244 94.4754 17.6909 95.3059 17.7083C97.2438 17.7083 99.0981 17.1333 99.0981 15.0667C99.1148 12.1917 94.9968 12.9333 94.9968 11.5417ZM1.93671 10.8333C1.93671 14.5583 4.10847 17.7667 7.24918 19.2917L2.75529 7.00833C2.21567 8.21166 1.93673 9.51507 1.93671 10.8333ZM11.3588 20.2333C12.4531 20.2333 13.5055 20.0417 14.4912 19.7L14.4244 19.575L11.5259 11.6583L8.70259 19.85C9.53788 20.1 10.4316 20.2333 11.3588 20.2333ZM12.6535 6.425L16.0615 16.5333L17.0054 13.4C17.4064 12.1 17.7154 11.1667 17.7154 10.3583C17.7154 9.19167 17.2978 8.39167 16.9469 7.775C16.4625 6.99167 16.0198 6.33333 16.0198 5.56667C16.0198 4.7 16.6713 3.9 17.6068 3.9H17.7238C15.9876 2.30993 13.7156 1.42942 11.3588 1.43333C9.79834 1.43304 8.26225 1.81977 6.88876 2.55873C5.51526 3.29769 4.34744 4.36569 3.49035 5.66667L4.09176 5.68333C5.07741 5.68333 6.59765 5.55833 6.59765 5.55833C7.11553 5.53333 7.174 6.275 6.66447 6.33333C6.66447 6.33333 6.15494 6.4 5.57859 6.425L9.02 16.6083L11.0832 10.4417L9.61306 6.425C9.28376 6.40687 8.95507 6.37908 8.62741 6.34167C8.11788 6.30833 8.17635 5.53333 8.68588 5.55833C8.68588 5.55833 10.2395 5.68333 11.1667 5.68333C12.1524 5.68333 13.6726 5.55833 13.6726 5.55833C14.1821 5.53333 14.2489 6.275 13.7394 6.33333C13.7394 6.33333 13.2299 6.39167 12.6535 6.425ZM16.0949 18.9583C17.5203 18.1315 18.7033 16.9459 19.5256 15.5202C20.3479 14.0944 20.7807 12.4783 20.7809 10.8333C20.7809 9.2 20.3633 7.66667 19.6282 6.325C19.7775 7.80107 19.5535 9.29092 18.9767 10.6583L16.0949 18.9583ZM11.3588 21.6667C8.47888 21.6667 5.7169 20.5253 3.68048 18.4937C1.64405 16.462 0.5 13.7065 0.5 10.8333C0.5 7.96016 1.64405 5.20465 3.68048 3.17301C5.7169 1.14137 8.47888 0 11.3588 0C14.2388 0 17.0007 1.14137 19.0372 3.17301C21.0736 5.20465 22.2176 7.96016 22.2176 10.8333C22.2176 13.7065 21.0736 16.462 19.0372 18.4937C17.0007 20.5253 14.2388 21.6667 11.3588 21.6667Z" fill="white"/>
</svg>

<svg xmlns="http://www.w3.org/2000/svg" width="107" height="22" fill="none">
  <path fill="#fff" d="m40.235 5.833-2.33 8.934-2.331-8.934h-2.347l.543 1.917-2.047 7.317-2.238-9.234h-2.256L30.404 17.5h2.472l1.905-6.242L36.56 17.5h2.464l3.34-11.667h-2.13Zm23.714 3.384a7.533 7.533 0 0 0-1.554-.192c-2.84 0-4.393 1.892-4.393 4.667 0 2.758 1.553 4.016 3.383 4.016a4.558 4.558 0 0 0 2.673-.975v.767h1.946V5.833h-2.055v3.384Zm0 5.9c-.668.608-1.295.941-1.955.941-1.136 0-1.862-.75-1.862-2.508 0-1.9.902-2.892 2.472-2.892.46 0 .919.092 1.337.259v4.2h.008Zm-9.823-4.534h-.075V9.217h-1.922V17.5h2.064v-4.933c.643-1.217 1.428-1.617 2.74-1.617h.208V9.167a5.586 5.586 0 0 0-.56-.034c-1.119 0-1.887.434-2.455 1.459v-.009ZM46.29 9.008c-2.84 0-4.177 1.834-4.177 4.359 0 2.516 1.337 4.333 4.177 4.333s4.193-1.817 4.193-4.333c0-2.525-1.37-4.359-4.202-4.359h.009Zm0 7.034c-1.337 0-2.055-.867-2.055-2.675 0-1.817.718-2.684 2.063-2.684 1.337 0 2.038.867 2.038 2.684 0 1.808-.71 2.675-2.055 2.675h.009Zm33.67-5.467h-.066V9.217h-1.93V17.5h2.055v-4.933c.643-1.217 1.428-1.617 2.74-1.617h.209V9.167a5.586 5.586 0 0 0-.56-.034c-1.111 0-1.88.434-2.456 1.459h.008v-.017Zm-7.584-4.742H68.55V17.5h2.206v-4.058h1.612c2.497 0 4.31-1.342 4.31-3.85 0-2.5-1.813-3.759-4.31-3.759h.008Zm.017 5.9h-1.637V7.558h1.628c1.337 0 1.988.734 1.988 2.034 0 1.308-.61 2.141-1.988 2.141h.009Zm30.087-.191c0-.625.685-.867 1.42-.867a8.254 8.254 0 0 1 2.297.358v-1.7a8.484 8.484 0 0 0-2.464-.316c-1.988 0-3.383.941-3.383 2.475 0 2.975 4.11 2.208 4.11 3.658 0 .708-.643.9-1.587.9-.669 0-1.729-.25-2.498-.525v1.692a6.937 6.937 0 0 0 2.422.491c1.938 0 3.784-.575 3.784-2.641.025-2.875-4.093-2.134-4.093-3.525h-.008ZM87.863 9.017c-2.656 0-4.034 2.058-4.034 4.3 0 3.083 1.62 4.391 4.26 4.391a9.887 9.887 0 0 0 3.049-.475v-1.708c-.86.317-1.646.508-2.481.508-1.537 0-2.564-.416-2.614-2.225h5.312c.05-.408.075-.816.067-1.216 0-1.75-.927-3.575-3.567-3.575h.008ZM86.06 12.45c.126-1.15.752-1.883 1.78-1.883 1.102 0 1.436.875 1.436 1.883H86.06Zm8.938-.908c0-.625.676-.867 1.412-.867a8.258 8.258 0 0 1 2.296.358v-1.7a8.488 8.488 0 0 0-2.455-.316c-1.988 0-3.391.941-3.391 2.475 0 2.975 4.118 2.208 4.118 3.658 0 .708-.652.9-1.588.9-.668 0-1.729-.25-2.505-.525v1.692a6.93 6.93 0 0 0 2.422.491c1.938 0 3.792-.575 3.792-2.641.017-2.875-4.101-2.134-4.101-3.525Zm-93.06-.709c0 3.725 2.171 6.934 5.312 8.459L2.755 7.008a9.348 9.348 0 0 0-.818 3.825Zm9.422 9.4a9.543 9.543 0 0 0 3.132-.533l-.067-.125-2.898-7.917-2.823 8.192a9.26 9.26 0 0 0 2.656.383Zm1.294-13.808 3.408 10.108.944-3.133c.401-1.3.71-2.233.71-3.042 0-1.166-.417-1.966-.768-2.583-.485-.783-.927-1.442-.927-2.208 0-.867.651-1.667 1.587-1.667h.117a9.401 9.401 0 0 0-6.365-2.467c-1.56 0-3.097.387-4.47 1.126a9.406 9.406 0 0 0-3.4 3.108l.602.016c.985 0 2.506-.125 2.506-.125.518-.025.576.717.066.775 0 0-.51.067-1.085.092L9.02 16.608l2.063-6.166-1.47-4.017a16.86 16.86 0 0 1-.986-.083c-.51-.034-.45-.809.059-.784 0 0 1.553.125 2.48.125.986 0 2.507-.125 2.507-.125.51-.025.576.717.066.775 0 0-.51.059-1.086.092Zm3.442 12.533a9.411 9.411 0 0 0 3.43-3.438 9.383 9.383 0 0 0 .103-9.195 8.856 8.856 0 0 1-.651 4.333l-2.882 8.3Zm-4.736 2.709c-2.88 0-5.642-1.142-7.679-3.173a10.82 10.82 0 0 1-3.18-7.66 10.82 10.82 0 0 1 3.18-7.661A10.872 10.872 0 0 1 11.36 0c2.88 0 5.642 1.141 7.678 3.173a10.82 10.82 0 0 1 3.18 7.66 10.82 10.82 0 0 1-3.18 7.66 10.872 10.872 0 0 1-7.678 3.174Z"/>
</svg>
